X: 41550
T: Unfortunate Snow Incident, The
R: jig
M: 6/8
K: Dmajor
A2G|:FED AFD|BGd c2A|FGA DFA|BGE EAG|FED AFD|
BGd c2A|1 FGA EAG|FDD DAG:|2 FGA EAG|FDD DFA||
|:BGB dcB|ADE FGA|E3 EFG|FG^G Ad=c|BGB dcB|
ADE FGA|1 E3 EAG|FDD Dd=c:|2 E3 EAG|FDD D2A||
|:BzG BzG|B=cA BzG|AzD AzD|AB=c ABcBzG BzG|
B=cA BzG|1 ABA DEF|G3 G2A:|2 ABA DEF|G3 GGF||
|:E3 B3|B=cA B2G|A2D A2D|ABA FED|E3 B3|
B=cA B2G|1 ABA DEF|G3 GGF:|2 ABA DEF|G3 G2A||

